dist/img/check.svg

<svg width="20" height="20" viewBox="0 0 20 20" fill="none" xmlns="http://www.w3.org/2000/svg">
<path d="M7.4343 15.7312L2.2343 10.5312C1.9219 10.2188 1.9219 9.7123 2.2343 9.39986L3.36565 8.26848C3.67805 7.95605 4.18462 7.95605 4.49702 8.26848L7.99999 11.7714L15.503 4.26848C15.8154 3.95608 16.3219 3.95608 16.6343 4.26848L17.7657 5.39986C18.0781 5.71227 18.0781 6.2188 17.7657 6.53123L8.56568 15.7313C8.25324 16.0437 7.74671 16.0437 7.4343 15.7312V15.7312Z" fill="white"/>
</svg>

<svg width="20" height="20" fill="none" xmlns="http://www.w3.org/2000/svg"><path d="m7.434 15.731-5.2-5.2a.8.8 0 0 1 0-1.131l1.132-1.132a.8.8 0 0 1 1.131 0L8 11.771l7.503-7.503a.8.8 0 0 1 1.131 0L17.766 5.4a.8.8 0 0 1 0 1.131l-9.2 9.2a.8.8 0 0 1-1.132 0Z" fill="#fff"/></svg>
